svg/m/PN.svg

<svg width="20" height="15" viewBox="0 0 20 15" fill="none" xmlns="http://www.w3.org/2000/svg">
<g clip-path="url(#clip0_270_60966)">
<rect width="20" height="15" fill="white"/>
<path fill-rule="evenodd" clip-rule="evenodd" d="M0 0V15H20V0H0Z" fill="#2E42A5"/>
<path fill-rule="evenodd" clip-rule="evenodd" d="M12.9427 7.03169C12.9427 7.03169 13.0003 7.67452 12.874 8.03877C12.7478 8.40302 12.6836 8.61446 12.6836 8.38163C12.6836 8.1488 12.5949 7.96428 12.5236 7.96428C12.4522 7.96428 12.5086 8.19517 12.4369 8.19517C12.3652 8.19517 12.1182 8.23487 12.1182 8.09958C12.1182 7.96428 12.0857 8.46252 12.246 8.50708C12.4062 8.55164 12.1682 8.6899 12.0619 8.64708C12.0619 8.64708 12.4991 8.79012 12.6705 8.91201C12.6705 8.91201 13.1844 9.55789 13.6651 9.47909C13.6651 9.47909 13.0106 9.25163 13.1259 8.81705C13.2412 8.38246 13.6651 8.3196 13.6651 8.3196C13.6651 8.3196 13.864 8.38657 13.8581 8.562C13.8521 8.73742 14.0035 8.50708 14.0035 8.50708C14.0035 8.50708 14.0279 8.28544 14.001 8.23135C13.9741 8.17726 14.4566 8.07257 14.4871 7.84433C14.4871 7.84433 13.9941 7.86702 13.9602 7.80839C13.9264 7.74975 14.1128 7.65783 14.0545 7.54353C13.9962 7.42923 13.1259 8.19517 13.1259 8.19517C13.1259 8.19517 13.4264 7.67384 13.4264 7.39388C13.4264 7.11393 13.3501 6.92261 13.1259 6.92261C12.9017 6.92261 12.9427 7.03169 12.9427 7.03169Z" fill="#5EAA22"/>
<path fill-rule="evenodd" clip-rule="evenodd" d="M17.4736 7.18464C17.4731 7.18556 17.4742 7.18637 17.475 7.18562C17.5068 7.15399 17.7069 6.96822 17.8746 7.1147C18.0573 7.27435 17.7825 7.42993 17.7825 7.42993C17.7825 7.42993 17.9109 7.55534 18.0578 7.55534C18.2047 7.55534 18.2407 7.42993 18.2407 7.42993C18.2407 7.42993 18.252 7.70902 18.731 7.8147C18.731 7.8147 18.9019 7.56766 18.731 7.43241C18.731 7.43241 18.9329 7.39024 18.9183 7.22561C18.9183 7.22561 18.7523 7.28254 18.6339 7.15171C18.5155 7.02088 18.2848 6.96055 18.1171 6.99072C17.6907 6.83592 17.4991 7.1398 17.4736 7.18464Z" fill="#5EAA22"/>
<path fill-rule="evenodd" clip-rule="evenodd" d="M14.5688 8.59257C14.5688 8.59257 15.0642 9.53058 14.7546 9.72494C14.445 9.91931 16.2268 9.78105 16.3947 9.72494C16.5626 9.66884 16.3608 9.37309 16.1746 9.29099C15.9884 9.20888 15.223 8.93571 15.0193 8.72969C14.8157 8.52366 14.9401 8.45056 15.1041 8.24718C15.2681 8.0438 15.8752 7.96248 15.8752 7.77238C15.8752 7.58229 16.2603 6.79832 16.5295 6.73917C16.7987 6.68003 16.6533 6.58688 16.5914 6.58688C16.5295 6.58688 16.1574 6.97299 16.0163 6.90333C15.8752 6.83367 15.858 6.83857 16.0163 6.67018C16.1746 6.50179 16.2938 6.30799 16.0845 6.44743C15.8752 6.58688 15.5302 6.80757 15.3643 6.80757C15.1985 6.80757 14.608 6.73229 14.6813 6.90333C14.7546 7.07436 14.7857 7.37125 15.1041 7.57182C15.4225 7.77238 15.2841 7.91916 15.0193 8.11243C14.7546 8.3057 14.5688 8.59257 14.5688 8.59257Z" fill="#96877D"/>
<path d="M17.8559 7.35217L16.9119 9.25792C16.9119 9.25792 16.8844 9.79625 17.5593 9.43754C18.2341 9.07882 18.2075 8.8244 18.4021 8.8244C18.5967 8.8244 18.6585 8.71564 18.6585 8.71564L18.5288 8.61304C18.5288 8.61304 18.5139 8.42591 18.5959 8.38388C18.5959 8.38388 18.4349 8.29457 18.4119 8.36914C18.3889 8.4437 18.2753 8.21316 18.3396 8.21316C18.3396 8.21316 18.1976 8.44461 18.1676 8.53491C18.1676 8.53491 17.9621 8.45082 17.972 8.06118C17.9818 7.67155 17.8559 7.35217 17.8559 7.35217Z" fill="#FFD018"/>
<path d="M13.3629 7.05037C13.3629 7.05037 12.8822 7.16301 12.9341 7.28023C12.9859 7.39746 13.0623 7.27707 12.827 7.41834C12.827 7.41834 12.4135 7.74013 12.3234 7.70525C12.2333 7.67038 12.3872 7.7863 12.3872 7.41834C12.3872 7.05037 12.1472 7.3499 12.3872 7.10426C12.6273 6.85862 12.7115 7.05037 12.827 6.90902C12.9424 6.76768 12.8386 6.84284 13.1518 6.84284C13.465 6.84284 13.3629 7.05037 13.3629 7.05037Z" fill="#FFD018"/>
<path d="M14.8295 8.9444C14.8295 8.9444 13.4837 10.009 13.2148 10.0885C12.9458 10.168 13.768 10.0666 13.9688 9.92609C14.1697 9.78554 14.8295 8.9444 14.8295 8.9444Z" fill="#FFD018"/>
<path fill-rule="evenodd" clip-rule="evenodd" d="M17.4977 10.8121C17.4977 10.8121 17.6268 11.6509 17.2896 11.5683C16.9524 11.4858 16.8124 11.4431 16.8124 11.4431C16.8124 11.4431 16.9361 11.8338 17.1129 11.8338C17.1129 11.8338 17.414 12.4245 17.2981 12.6111C17.2981 12.6111 17.8168 12.1874 17.733 11.8506C17.6491 11.5138 17.8671 11.906 17.8671 11.906C17.8671 11.906 18.0579 11.9988 18.1959 11.8952C18.3339 11.7916 18.1942 11.8376 18.0562 11.6403C17.9182 11.4431 17.9523 10.889 17.5326 10.6018C17.1129 10.3147 17.0152 10.3239 17.0152 10.3239C17.0152 10.3239 16.7061 9.81509 16.8913 9.84874C16.8913 9.84874 18.2184 10.3067 18.2529 10.4241C18.2874 10.5415 18.6394 10.52 18.4634 10.1844C18.2874 9.84874 17.3387 9.64647 17.2258 9.55182C17.1129 9.45717 17.2179 9.09818 17.0152 9.01997C16.8124 8.94177 16.2585 8.38683 16.2588 8.11941C16.2592 7.85198 15.9985 7.72609 15.7719 7.72609C15.5452 7.72609 15.1185 7.66019 14.9382 7.66019C14.7579 7.66019 14.5899 7.96379 14.764 7.96379C14.9382 7.96379 14.7894 8.53221 14.4978 8.65643C14.2061 8.78066 13.9807 8.9592 13.6477 8.9592C13.3146 8.9592 14.1191 9.24826 14.2473 9.13411C14.3755 9.01997 14.3335 8.84989 14.764 8.65643C15.1946 8.46298 15.6056 8.34844 15.5535 8.50244C15.5015 8.65643 15.6342 8.91401 15.8371 8.82079C16.04 8.72756 16.105 8.49208 16.105 8.65643C16.105 8.82079 16.416 9.66493 16.6536 9.99439C16.8913 10.3239 17.4977 10.8121 17.4977 10.8121Z" fill="#5EAA22"/>
<path d="M14.6665 7.72964C14.6665 7.72964 14.5087 7.98272 14.6665 7.98272C14.8243 7.98272 15.0781 7.98272 14.9235 7.85618C14.7689 7.72964 14.6665 7.72964 14.6665 7.72964Z" fill="#FFD018"/>
<path d="M15.1937 7.72358C15.1937 7.72358 15.1945 7.89184 15.3038 7.89184C15.4132 7.89184 15.5105 8.0601 15.5105 7.89184C15.5105 7.72358 15.6625 7.77938 15.4281 7.72358C15.1937 7.66778 15.1937 7.72358 15.1937 7.72358Z" fill="#FFD018"/>
<path d="M15.8673 7.76212C15.8673 7.76212 15.7619 7.84202 15.8146 7.98455C15.8673 8.12708 15.9865 8.40913 15.8146 8.40913C15.6426 8.40913 15.5012 8.51082 15.6355 8.51082C15.7698 8.51082 16.0088 8.61251 16.0088 8.51082C16.0088 8.40913 16.106 8.6785 16.106 8.51082C16.106 8.34315 16.106 8.26303 16.106 8.16469C16.106 8.06635 16.2032 8.03808 16.106 7.9001C16.0088 7.76212 15.8673 7.76212 15.8673 7.76212Z" fill="#FFD018"/>
<path d="M16.1109 8.74335C16.1109 8.74335 16.3306 9.43947 16.4501 9.52922C16.5696 9.61897 16.6232 10.3749 16.6756 10.4571C16.728 10.5393 17.4425 10.9542 17.4425 11.1768C17.4425 11.3995 17.6625 11.0058 17.5525 10.7853C17.4425 10.5648 17.0962 10.0955 16.8471 9.9931C16.598 9.89074 16.6296 9.64289 16.5772 9.46869C16.5249 9.29449 16.8871 9.60944 16.5772 9.21431C16.2673 8.81918 16.2755 9.03121 16.3628 9.03121C16.4501 9.03121 16.5373 8.98452 16.4501 8.92312C16.3628 8.86172 16.1109 8.74335 16.1109 8.74335Z" fill="#FFD018"/>
<path d="M13.7816 10.1789C13.7816 10.1789 13.0679 11.4477 12.9405 11.5132C12.8132 11.5788 12.7183 11.5921 12.6532 11.5132C12.5881 11.4344 12.5814 11.7249 12.6532 11.8045C12.7249 11.884 12.9405 11.884 13.0602 11.7428C13.0602 11.7428 13.0791 12.0997 13.2655 12.3688C13.4519 12.6379 13.5295 12.5636 13.5295 12.7158C13.5295 12.8679 13.5736 13.0694 13.6305 13.0694C13.6874 13.0694 13.7314 13.5484 13.6305 13.5484C13.5295 13.5484 13.8644 13.5877 14.0104 13.4679C14.1563 13.3481 14.2187 13.2569 14.1875 13.2569C14.1563 13.2569 13.7816 13.0583 13.7816 12.9177C13.7816 12.7772 13.5295 12.6672 13.5295 12.4586C13.5295 12.25 13.3986 12.002 13.3986 11.9032C13.3986 11.8045 13.5106 11.9414 13.6305 11.8478C13.7504 11.7543 13.7816 11.5132 13.7816 11.5132C13.7816 11.5132 13.5927 11.6408 13.5295 11.577C13.4664 11.5132 13.2677 11.3874 13.3986 11.1714C13.5295 10.9554 13.7816 10.1789 13.7816 10.1789Z" fill="#FFD018"/>
<path fill-rule="evenodd" clip-rule="evenodd" d="M15.0183 6.17746C15.0183 6.17746 14.7627 6.29188 14.8479 6.46189C14.9331 6.63189 14.9637 6.70717 15.0183 6.66953C15.0729 6.63189 15.4557 6.56073 15.3699 6.36909C15.2842 6.17746 15.1045 6.17746 15.1045 6.17746H15.0183Z" fill="#5EAA22"/>
<path d="M15.9048 6.08552C15.9048 6.08552 15.5673 5.93517 15.6798 6.08552C15.7923 6.23588 15.9362 6.31514 16.0398 6.31514C16.1433 6.31514 16.3585 6.28406 16.2509 6.2234C16.1433 6.16274 15.9048 6.08552 15.9048 6.08552Z" fill="#FFD018"/>
<path fill-rule="evenodd" clip-rule="evenodd" d="M12.5727 9.99248C12.5743 9.98367 12.5638 9.9775 12.5573 9.9837C12.4875 10.0506 12.2755 10.2763 12.3652 10.4725C12.4719 10.706 12.5787 10.787 12.5787 10.787C12.5787 10.787 12.6437 11.1444 12.778 11.2416C12.778 11.2416 12.9585 11.2323 12.9674 10.9542C12.9674 10.9542 13.2739 10.8637 13.3639 11.0563C13.3639 11.0563 13.3045 11.078 13.3045 11.2416C13.3045 11.4053 13.4432 11.5826 13.4432 11.5826C13.4432 11.5826 13.5067 11.0181 13.792 10.6541C14.0774 10.2901 14.159 10.2183 14.159 10.2183V9.80875C14.159 9.80875 13.5686 10.293 13.4432 10.6957C13.4432 10.6957 13.1459 10.7057 13.0251 10.6541C12.9043 10.6026 13.1759 10.518 13.0251 10.3347C12.8742 10.1515 12.9433 10.5928 12.778 10.4725C12.5186 10.3999 12.5548 10.0887 12.5727 9.99248Z" fill="#5EAA22"/>
<path fill-rule="evenodd" clip-rule="evenodd" d="M13.859 9.6377L16.8834 9.6377V11.4978C16.8834 11.4978 16.6368 13.0177 15.3197 13.7665C15.3197 13.7665 14.0439 13.0074 13.859 11.4978V9.6377Z" fill="#5EAA22"/>
<mask id="mask0_270_60966" style="mask-type:luminance" maskUnits="userSpaceOnUse" x="13" y="9" width="4" height="5">
<path fill-rule="evenodd" clip-rule="evenodd" d="M13.859 9.6377L16.8834 9.6377V11.4978C16.8834 11.4978 16.6368 13.0177 15.3197 13.7665C15.3197 13.7665 14.0439 13.0074 13.859 11.4978V9.6377Z" fill="white"/>
</mask>
<g mask="url(#mask0_270_60966)">
<path fill-rule="evenodd" clip-rule="evenodd" d="M15.2968 9.5372L13.9755 12.2976L15.7674 10.6594L17.0008 12.7172V9.5372L15.7674 10.555L15.2968 9.5372Z" fill="#58A5FF"/>
<path d="M15.2552 11.5273C15.2552 11.4728 15.2993 11.4287 15.3537 11.4287C15.4082 11.4287 15.4523 11.4728 15.4523 11.5273V13.301C15.4523 13.3555 15.4082 13.3996 15.3537 13.3996C15.2993 13.3996 15.2552 13.3555 15.2552 13.301L15.2552 11.5273Z" fill="#FFD018"/>
<path d="M14.913 11.9649C14.8591 11.9649 14.8155 11.9213 14.8155 11.8674C14.8155 11.8136 14.8591 11.7699 14.913 11.7699H15.8026C15.8564 11.7699 15.9001 11.8136 15.9001 11.8674C15.9001 11.9213 15.8564 11.9649 15.8026 11.9649H14.913Z" fill="#FFD018"/>
<path d="M15.498 13.4387L15.412 13.509C15.2852 13.354 15.1696 13.2795 15.0675 13.2795C14.9171 13.2795 14.7947 13.1532 14.695 12.9136L14.7976 12.8709C14.882 13.0736 14.9738 13.1684 15.0675 13.1684C15.2095 13.1684 15.3522 13.2604 15.498 13.4387Z" fill="#FFD018"/>
<path fill-rule="evenodd" clip-rule="evenodd" d="M14.5954 12.5321C14.5948 12.5315 14.5939 12.5319 14.5939 12.5327V13.0734C14.5939 13.074 14.5945 13.0745 14.5951 13.0742L14.9991 12.9068C14.9997 12.9066 14.9998 12.9058 14.9993 12.9053L14.5954 12.5321Z" fill="#FFD018"/>
<path d="M15.319 13.4387L15.405 13.509C15.5318 13.354 15.6473 13.2795 15.7495 13.2795C15.8999 13.2795 16.0222 13.1532 16.1219 12.9136L16.0194 12.8709C15.935 13.0736 15.8432 13.1684 15.7495 13.1684C15.6075 13.1684 15.4648 13.2604 15.319 13.4387Z" fill="#FFD018"/>
<path fill-rule="evenodd" clip-rule="evenodd" d="M16.2215 12.5321C16.2221 12.5315 16.2231 12.5319 16.2231 12.5327V13.0734C16.2231 13.074 16.2224 13.0745 16.2218 13.0742L15.8179 12.9068C15.8173 12.9066 15.8171 12.9058 15.8176 12.9053L16.2215 12.5321Z" fill="#FFD018"/>
<rect x="15.1549" y="10.7322" width="0.394366" height="0.591529" fill="white"/>
</g>
<g clip-path="url(#clip1_270_60966)">
<rect width="11" height="9" fill="#2E42A5"/>
<path d="M-1.25266 8.12488L1.22294 9.21063L11.3062 1.18046L12.612 -0.432999L9.96471 -0.795888L5.852 2.66454L2.54169 4.99607L-1.25266 8.12488Z" fill="#F7FCFF"/>
<path d="M-0.913757 8.88561L0.347444 9.51569L12.1431 -0.582886H10.3722L-0.913757 8.88561Z" fill="#F50100"/>
<path d="M12.5027 8.1249L10.3056 9.5206L-0.0561867 1.18047L-1.36201 -0.432984L1.28529 -0.795875L5.398 2.66456L8.70831 4.99608L12.5027 8.1249Z" fill="#F7FCFF"/>
<path d="M12.4182 8.67082L11.157 9.3009L6.13428 4.97718L4.64515 4.4941L-1.48766 -0.427482H0.283216L6.41258 4.37728L8.04068 4.95655L12.4182 8.67082Z" fill="#F50100"/>
<path fill-rule="evenodd" clip-rule="evenodd" d="M6 0H5V4H0V5H5V9H6V5H11V4H6V0Z" fill="#F50100"/>
<path fill-rule="evenodd" clip-rule="evenodd" d="M4.0625 0H6.9375V3.0625L11 3V5.875L6.9375 5.9375V9H4.0625V5.9375L0 5.875V3L4.0625 3.0625V0ZM5 4H0V5H5V9H6V5H11V4H6V0H5V4Z" fill="#F7FCFF"/>
</g>
</g>
<defs>
<clipPath id="clip0_270_60966">
<rect width="20" height="15" fill="white"/>
</clipPath>
<clipPath id="clip1_270_60966">
<rect width="11" height="9" fill="white"/>
</clipPath>
</defs>
</svg>

<svg width="20" height="15" fill="none" xmlns="http://www.w3.org/2000/svg">
  <mask id="a" maskUnits="userSpaceOnUse" x="0" y="0" width="20" height="15">
    <path fill="#fff" d="M0 0h20v15H0z"/>
  </mask>
  <g mask="url(#a)">
    <path fill-rule="evenodd" clip-rule="evenodd" d="M0 0v15h20V0H0z" fill="#2E42A5"/>
    <mask id="b" maskUnits="userSpaceOnUse" x="0" y="0" width="20" height="15">
      <path fill-rule="evenodd" clip-rule="evenodd" d="M0 0v15h20V0H0z" fill="#fff"/>
    </mask>
    <g mask="url(#b)">
      <path fill-rule="evenodd" clip-rule="evenodd" d="M12.943 7.032s.057.643-.069 1.007c-.126.364-.19.575-.19.343 0-.233-.09-.418-.16-.418-.072 0-.015.231-.087.231s-.319.04-.319-.095c0-.136-.032.363.128.407.16.045-.078.183-.184.14 0 0 .437.143.609.265 0 0 .513.646.994.567 0 0-.654-.227-.54-.662.116-.435.54-.497.54-.497s.199.067.193.242c-.006.175.146-.055.146-.055s.024-.222-.003-.276c-.027-.054.456-.158.486-.387 0 0-.493.023-.527-.036-.034-.058.153-.15.095-.264-.059-.115-.93.651-.93.651s.301-.521.301-.801-.076-.471-.3-.471c-.224 0-.183.109-.183.109zm4.531.153h.001c.032-.031.232-.217.4-.07.182.16-.093.315-.093.315s.129.125.276.125c.147 0 .183-.125.183-.125s.011.279.49.385c0 0 .17-.247 0-.383 0 0 .202-.042.187-.206 0 0-.166.057-.284-.074-.119-.131-.35-.191-.517-.161-.426-.155-.618.149-.643.194z" fill="#5EAA22"/>
      <path fill-rule="evenodd" clip-rule="evenodd" d="M14.569 8.593s.495.938.186 1.132c-.31.194 1.472.056 1.64 0 .168-.056-.034-.352-.22-.434-.187-.082-.952-.355-1.156-.561-.203-.206-.079-.28.085-.483.164-.203.771-.285.771-.475s.385-.974.654-1.033c.27-.059.124-.152.062-.152s-.434.386-.575.316c-.14-.07-.158-.064 0-.233.159-.168.278-.362.069-.223-.21.14-.555.36-.72.36-.167 0-.757-.075-.684.096.074.171.105.468.423.669.319.2.18.347-.085.54-.264.194-.45.48-.45.48z" fill="#96877D"/>
      <path d="M17.856 7.352l-.944 1.906s-.028.538.647.18c.675-.36.648-.614.843-.614.195 0 .256-.108.256-.108l-.13-.103s-.014-.187.068-.23c0 0-.161-.088-.184-.014-.023.075-.137-.156-.072-.156 0 0-.142.232-.172.322 0 0-.206-.084-.196-.474a2.01 2.01 0 00-.116-.709zm-4.493-.302s-.48.113-.429.23c.052.117.128-.003-.107.138 0 0-.413.322-.504.287-.09-.035.064.081.064-.287s-.24-.068 0-.314c.24-.245.324-.054.44-.195.115-.141.012-.066.325-.066s.21.207.21.207zm1.467 1.894s-1.346 1.065-1.615 1.144c-.27.08.553-.021.754-.162.2-.14.86-.982.86-.982z" fill="#FFD018"/>
      <path fill-rule="evenodd" clip-rule="evenodd" d="M17.498 10.812s.129.839-.208.756a10.141 10.141 0 01-.478-.125s.124.39.3.39c0 0 .302.591.186.778 0 0 .519-.424.435-.76-.084-.337.134.055.134.055s.19.093.329-.01c.138-.104-.002-.058-.14-.256-.138-.197-.104-.751-.523-1.038-.42-.287-.518-.278-.518-.278s-.309-.509-.124-.475c0 0 1.327.458 1.362.575.034.117.386.096.21-.24-.176-.335-1.124-.538-1.237-.632-.113-.095-.008-.454-.21-.532-.204-.078-.757-.633-.757-.9 0-.268-.26-.394-.487-.394-.227 0-.654-.066-.834-.066-.18 0-.348.304-.174.304s.025.568-.266.692c-.292.125-.517.303-.85.303-.333 0 .471.29.6.175.128-.114.086-.284.516-.478.43-.193.842-.308.79-.154-.053.154.08.412.283.319.203-.093.268-.329.268-.165 0 .165.311 1.009.549 1.338.237.33.844.818.844.818z" fill="#5EAA22"/>
      <path d="M14.666 7.73s-.157.253 0 .253c.158 0 .412 0 .258-.127-.155-.126-.258-.126-.258-.126zm.528-.006s0 .168.11.168.207.168.207 0 .152-.113-.083-.168c-.234-.056-.234 0-.234 0zm.673.038s-.105.08-.052.223c.052.142.171.424 0 .424-.172 0-.314.102-.18.102.135 0 .374.102.374 0s.097.168.097 0v-.346c0-.099.097-.127 0-.265s-.239-.138-.239-.138zm.243.981s.22.696.34.786c.12.09.173.846.226.928.052.082.767.497.767.72 0 .223.22-.171.11-.392-.11-.22-.457-.69-.706-.792-.249-.102-.217-.35-.27-.524-.052-.175.31.14 0-.255s-.302-.183-.214-.183c.087 0 .174-.046.087-.108-.087-.061-.34-.18-.34-.18zm-2.328 1.436s-.714 1.269-.841 1.334c-.128.066-.223.08-.288 0-.065-.079-.072.212 0 .292.072.079.287.079.407-.062 0 0 .02.357.205.626.187.269.264.195.264.347 0 .152.045.353.101.353.057 0 .101.48 0 .48-.1 0 .234.039.38-.081s.209-.211.178-.211c-.032 0-.406-.199-.406-.34 0-.14-.252-.25-.252-.458 0-.209-.131-.457-.131-.556 0-.098.112.038.232-.055.12-.094.15-.335.15-.335s-.188.128-.252.064c-.063-.064-.261-.19-.13-.406.13-.216.383-.992.383-.992z" fill="#FFD018"/>
      <path fill-rule="evenodd" clip-rule="evenodd" d="M15.018 6.177s-.255.115-.17.285c.085.17.116.245.17.208.055-.038.438-.11.352-.3-.086-.193-.265-.193-.265-.193h-.087z" fill="#5EAA22"/>
      <path d="M15.905 6.086s-.338-.15-.225 0c.112.15.256.23.36.23.103 0 .319-.032.21-.093a2.632 2.632 0 00-.345-.137z" fill="#FFD018"/>
      <path fill-rule="evenodd" clip-rule="evenodd" d="M12.573 9.992c.001-.008-.01-.015-.016-.008-.07.067-.282.292-.192.489.107.233.214.314.214.314s.065.357.199.455c0 0 .18-.01.19-.288 0 0 .306-.09.396.102 0 0-.06.022-.06.186 0 .163.14.34.14.34s.063-.564.348-.928c.285-.364.367-.436.367-.436v-.41s-.59.485-.716.888c0 0-.297.01-.418-.042-.12-.051.15-.136 0-.32-.15-.182-.082.259-.247.139-.26-.073-.223-.384-.205-.48z" fill="#5EAA22"/>
      <path fill-rule="evenodd" clip-rule="evenodd" d="M13.859 9.638h3.024v1.86s-.246 1.52-1.563 2.269c0 0-1.276-.76-1.461-2.27v-1.86z" fill="#5EAA22"/>
      <mask id="c" maskUnits="userSpaceOnUse" x="13" y="9" width="4" height="5">
        <path fill-rule="evenodd" clip-rule="evenodd" d="M13.859 9.638h3.024v1.86s-.246 1.52-1.563 2.269c0 0-1.276-.76-1.461-2.27v-1.86z" fill="#fff"/>
      </mask>
      <g mask="url(#c)">
        <path fill-rule="evenodd" clip-rule="evenodd" d="M15.297 9.537l-1.322 2.76 1.792-1.638 1.234 2.058v-3.18l-1.234 1.018-.47-1.018z" fill="#58A5FF"/>
        <path d="M15.255 11.527a.099.099 0 11.197 0v1.774a.099.099 0 11-.197 0v-1.774z" fill="#FFD018"/>
        <path d="M14.913 11.965a.097.097 0 110-.195h.89a.098.098 0 010 .195h-.89zm.585 1.474l-.086.07c-.127-.155-.242-.23-.345-.23-.15 0-.272-.126-.372-.365l.103-.043c.084.203.176.297.27.297.142 0 .284.092.43.27z" fill="#FFD018"/>
        <path fill-rule="evenodd" clip-rule="evenodd" d="M14.595 12.532h-.001v.541c0 .001 0 .002.001.001l.404-.167v-.002l-.404-.373z" fill="#FFD018"/>
        <path d="M15.319 13.439l.086.07c.127-.155.242-.23.345-.23.15 0 .272-.126.372-.365l-.103-.043c-.084.203-.176.297-.27.297-.142 0-.284.092-.43.27z" fill="#FFD018"/>
        <path fill-rule="evenodd" clip-rule="evenodd" d="M16.221 12.532h.002v.541c0 .001 0 .002-.001.001l-.404-.167v-.002l.403-.373z" fill="#FFD018"/>
        <path fill="#fff" d="M15.155 10.732h.394v.592h-.394z"/>
      </g>
      <path fill="#2E42A5" d="M0 0h11v9H0z"/>
      <mask id="d" maskUnits="userSpaceOnUse" x="0" y="0" width="11" height="9">
        <path fill="#fff" d="M0 0h11v9H0z"/>
      </mask>
      <g mask="url(#d)">
        <path d="M-1.253 8.125L1.223 9.21l10.083-8.03 1.306-1.614-2.647-.363-4.113 3.46-3.31 2.332-3.795 3.129z" fill="#F7FCFF"/>
        <path d="M-.914 8.886l1.261.63L12.143-.583h-1.77L-.915 8.886z" fill="#F50100"/>
        <path d="M12.503 8.125L10.306 9.52-.056 1.18-1.362-.434l2.647-.363 4.113 3.46 3.31 2.332 3.795 3.129z" fill="#F7FCFF"/>
        <path d="M12.418 8.67l-1.261.63-5.023-4.323-1.489-.483-6.133-4.921H.283l6.13 4.804 1.628.58 4.377 3.714z" fill="#F50100"/>
        <mask id="e" maskUnits="userSpaceOnUse" x="-1" y="-1" width="13" height="11" fill="#000">
          <path fill="#fff" d="M-1-1h13v11H-1z"/>
          <path fill-rule="evenodd" clip-rule="evenodd" d="M6 0H5v4H0v1h5v4h1V5h5V4H6V0z"/>
        </mask>
        <path fill-rule="evenodd" clip-rule="evenodd" d="M6 0H5v4H0v1h5v4h1V5h5V4H6V0z" fill="#F50100"/>
        <path d="M5 0v-.938h-.938V0H5zm1 0h.938v-.938H6V0zM5 4v.938h.938V4H5zM0 4v-.938h-.938V4H0zm0 1h-.938v.938H0V5zm5 0h.938v-.938H5V5zm0 4h-.938v.938H5V9zm1 0v.938h.938V9H6zm0-4v-.938h-.938V5H6zm5 0v.938h.938V5H11zm0-1h.938v-.938H11V4zM6 4h-.938v.938H6V4zM5 .937h1V-.938H5V.938zM5.938 4V0H4.063v4h1.875zM0 4.938h5V3.063H0v1.874zM.938 5V4H-.938v1H.938zM5 4.062H0v1.875h5V4.063zM5.938 9V5H4.063v4h1.875zM6 8.062H5v1.876h1V8.062zM5.062 5v4h1.875V5H5.063zM11 4.062H6v1.875h5V4.063zM10.062 4v1h1.876V4h-1.876zM6 4.938h5V3.063H6v1.874zM5.062 0v4h1.875V0H5.063z" fill="#F7FCFF" mask="url(#e)"/>
      </g>
    </g>
  </g>
</svg>
